images/16759028.svg

<?xml version="1.0" encoding="UTF-8"?>
<svg xmlns="http://www.w3.org/2000/svg" xmlns:xlink="http://www.w3.org/1999/xlink" width="300pt" height="300pt" viewBox="0 0 300 300" version="1.1">
<defs>
<g>
<symbol overflow="visible" id="glyph0-0">
<path style="stroke:none;" d="M 0.453125 1.59375 L 0.453125 -6.34375 L 4.953125 -6.34375 L 4.953125 1.59375 Z M 0.953125 1.09375 L 4.453125 1.09375 L 4.453125 -5.84375 L 0.953125 -5.84375 Z M 0.953125 1.09375 "/>
</symbol>
<symbol overflow="visible" id="glyph0-1">
<path style="stroke:none;" d="M 3.546875 -5.953125 C 2.898438 -5.953125 2.382812 -5.710938 2 -5.234375 C 1.625 -4.753906 1.4375 -4.101562 1.4375 -3.28125 C 1.4375 -2.445312 1.625 -1.789062 2 -1.3125 C 2.382812 -0.832031 2.898438 -0.59375 3.546875 -0.59375 C 4.191406 -0.59375 4.703125 -0.832031 5.078125 -1.3125 C 5.453125 -1.789062 5.640625 -2.445312 5.640625 -3.28125 C 5.640625 -4.101562 5.453125 -4.753906 5.078125 -5.234375 C 4.703125 -5.710938 4.191406 -5.953125 3.546875 -5.953125 Z M 3.546875 -6.6875 C 4.460938 -6.6875 5.195312 -6.375 5.75 -5.75 C 6.300781 -5.132812 6.578125 -4.3125 6.578125 -3.28125 C 6.578125 -2.238281 6.300781 -1.410156 5.75 -0.796875 C 5.195312 -0.179688 4.460938 0.125 3.546875 0.125 C 2.617188 0.125 1.878906 -0.179688 1.328125 -0.796875 C 0.773438 -1.410156 0.5 -2.238281 0.5 -3.28125 C 0.5 -4.3125 0.773438 -5.132812 1.328125 -5.75 C 1.878906 -6.375 2.617188 -6.6875 3.546875 -6.6875 Z M 3.546875 -6.6875 "/>
</symbol>
<symbol overflow="visible" id="glyph0-2">
<path style="stroke:none;" d="M 0.890625 -6.5625 L 2.078125 -6.5625 L 4.984375 -1.078125 L 4.984375 -6.5625 L 5.84375 -6.5625 L 5.84375 0 L 4.65625 0 L 1.75 -5.484375 L 1.75 0 L 0.890625 0 Z M 0.890625 -6.5625 "/>
</symbol>
</g>
</defs>
<g id="surface30905">
<rect x="0" y="0" width="300" height="300" style="fill:rgb(100%,100%,100%);fill-opacity:1;stroke:none;"/>
<path style="fill:none;stroke-width:1.2;stroke-linecap:butt;stroke-linejoin:miter;stroke:rgb(0%,0%,0%);stroke-opacity:1;stroke-miterlimit:10;" d="M 35.25 169.746094 L 43.328125 174.683594 "/>
<path style="fill:none;stroke-width:1.2;stroke-linecap:butt;stroke-linejoin:miter;stroke:rgb(100%,0%,0%);stroke-opacity:1;stroke-miterlimit:10;" d="M 43.328125 174.683594 L 51.40625 179.621094 "/>
<path style="fill:none;stroke-width:1.2;stroke-linecap:butt;stroke-linejoin:miter;stroke:rgb(100%,0%,0%);stroke-opacity:1;stroke-miterlimit:10;" d="M 51.40625 179.621094 L 59.71875 175.09375 "/>
<path style="fill:none;stroke-width:1.2;stroke-linecap:butt;stroke-linejoin:miter;stroke:rgb(0%,0%,0%);stroke-opacity:1;stroke-miterlimit:10;" d="M 59.71875 175.09375 L 68.035156 170.570312 "/>
<path style=" stroke:none;fill-rule:nonzero;fill:rgb(100%,100%,100%);fill-opacity:1;" d="M 47.40625 174.121094 L 55.40625 174.121094 L 55.40625 185.121094 L 47.40625 185.121094 Z M 47.40625 174.121094 "/>
<g style="fill:rgb(100%,0%,0%);fill-opacity:1;">
  <use xlink:href="#glyph0-1" x="47.40625" y="182.78418"/>
</g>
<path style="fill:none;stroke-width:1.2;stroke-linecap:butt;stroke-linejoin:miter;stroke:rgb(0%,0%,0%);stroke-opacity:1;stroke-miterlimit:10;" d="M 68.035156 170.570312 L 68.511719 151.640625 "/>
<path style="fill:none;stroke-width:1.2;stroke-linecap:butt;stroke-linejoin:miter;stroke:rgb(0%,0%,0%);stroke-opacity:1;stroke-miterlimit:10;" d="M 72.539062 168.789062 L 72.917969 153.644531 "/>
<path style="fill:none;stroke-width:1.2;stroke-linecap:butt;stroke-linejoin:miter;stroke:rgb(0%,0%,0%);stroke-opacity:1;stroke-miterlimit:10;" d="M 84.191406 180.445312 L 68.035156 170.570312 "/>
<path style="fill:none;stroke-width:1.2;stroke-linecap:butt;stroke-linejoin:miter;stroke:rgb(0%,0%,0%);stroke-opacity:1;stroke-miterlimit:10;" d="M 68.511719 151.640625 L 85.144531 142.589844 "/>
<path style="fill:none;stroke-width:1.2;stroke-linecap:butt;stroke-linejoin:miter;stroke:rgb(0%,0%,0%);stroke-opacity:1;stroke-miterlimit:10;" d="M 85.144531 142.589844 L 101.296875 152.464844 "/>
<path style="fill:none;stroke-width:1.2;stroke-linecap:butt;stroke-linejoin:miter;stroke:rgb(0%,0%,0%);stroke-opacity:1;stroke-miterlimit:10;" d="M 84.433594 147.378906 L 97.359375 155.277344 "/>
<path style="fill:none;stroke-width:1.2;stroke-linecap:butt;stroke-linejoin:miter;stroke:rgb(0%,0%,0%);stroke-opacity:1;stroke-miterlimit:10;" d="M 101.296875 152.464844 L 100.820312 171.394531 "/>
<path style="fill:none;stroke-width:1.2;stroke-linecap:butt;stroke-linejoin:miter;stroke:rgb(0%,0%,0%);stroke-opacity:1;stroke-miterlimit:10;" d="M 101.296875 152.464844 L 117.929688 143.414062 "/>
<path style="fill:none;stroke-width:1.2;stroke-linecap:butt;stroke-linejoin:miter;stroke:rgb(0%,0%,0%);stroke-opacity:1;stroke-miterlimit:10;" d="M 100.820312 171.394531 L 84.191406 180.445312 "/>
<path style="fill:none;stroke-width:1.2;stroke-linecap:butt;stroke-linejoin:miter;stroke:rgb(0%,0%,0%);stroke-opacity:1;stroke-miterlimit:10;" d="M 97.027344 168.386719 L 83.722656 175.628906 "/>
<path style="fill:none;stroke-width:1.2;stroke-linecap:butt;stroke-linejoin:miter;stroke:rgb(0%,0%,0%);stroke-opacity:1;stroke-miterlimit:10;" d="M 117.929688 143.414062 L 134.082031 153.289062 "/>
<path style="fill:none;stroke-width:1.2;stroke-linecap:butt;stroke-linejoin:miter;stroke:rgb(0%,0%,0%);stroke-opacity:1;stroke-miterlimit:10;" d="M 117.21875 148.203125 L 130.144531 156.101562 "/>
<path style="fill:none;stroke-width:1.2;stroke-linecap:butt;stroke-linejoin:miter;stroke:rgb(0%,0%,0%);stroke-opacity:1;stroke-miterlimit:10;" d="M 134.082031 153.289062 L 142.398438 148.761719 "/>
<path style="fill:none;stroke-width:1.2;stroke-linecap:butt;stroke-linejoin:miter;stroke:rgb(0%,0%,100%);stroke-opacity:1;stroke-miterlimit:10;" d="M 142.398438 148.761719 L 150.714844 144.238281 "/>
<path style="fill:none;stroke-width:1.2;stroke-linecap:butt;stroke-linejoin:miter;stroke:rgb(0%,0%,100%);stroke-opacity:1;stroke-miterlimit:10;" d="M 150.714844 144.238281 L 158.792969 149.175781 "/>
<path style="fill:none;stroke-width:1.2;stroke-linecap:butt;stroke-linejoin:miter;stroke:rgb(0%,0%,0%);stroke-opacity:1;stroke-miterlimit:10;" d="M 158.792969 149.175781 L 166.867188 154.113281 "/>
<path style="fill:none;stroke-width:1.2;stroke-linecap:butt;stroke-linejoin:miter;stroke:rgb(0%,0%,100%);stroke-opacity:1;stroke-miterlimit:10;" d="M 150.714844 144.238281 L 150.953125 134.773438 "/>
<path style="fill:none;stroke-width:1.2;stroke-linecap:butt;stroke-linejoin:miter;stroke:rgb(0%,0%,0%);stroke-opacity:1;stroke-miterlimit:10;" d="M 150.953125 134.773438 L 151.191406 125.308594 "/>
<path style=" stroke:none;fill-rule:nonzero;fill:rgb(100%,100%,100%);fill-opacity:1;" d="M 147.714844 138.738281 L 154.714844 138.738281 L 154.714844 149.738281 L 147.714844 149.738281 Z M 147.714844 138.738281 "/>
<g style="fill:rgb(0%,0%,100%);fill-opacity:1;">
  <use xlink:href="#glyph0-2" x="147.714844" y="147.401367"/>
</g>
<path style="fill:none;stroke-width:1.2;stroke-linecap:butt;stroke-linejoin:miter;stroke:rgb(0%,0%,0%);stroke-opacity:1;stroke-miterlimit:10;" d="M 166.867188 154.113281 L 183.5 145.0625 "/>
<path style="fill:none;stroke-width:1.2;stroke-linecap:butt;stroke-linejoin:miter;stroke:rgb(0%,0%,0%);stroke-opacity:1;stroke-miterlimit:10;" d="M 183.5 145.0625 L 199.65625 154.9375 "/>
<path style="fill:none;stroke-width:1.2;stroke-linecap:butt;stroke-linejoin:miter;stroke:rgb(0%,0%,0%);stroke-opacity:1;stroke-miterlimit:10;" d="M 199.65625 154.9375 L 199.179688 173.867188 "/>
<path style="fill:none;stroke-width:1.2;stroke-linecap:butt;stroke-linejoin:miter;stroke:rgb(0%,0%,0%);stroke-opacity:1;stroke-miterlimit:10;" d="M 204.0625 156.941406 L 203.679688 172.085938 "/>
<path style="fill:none;stroke-width:1.2;stroke-linecap:butt;stroke-linejoin:miter;stroke:rgb(0%,0%,0%);stroke-opacity:1;stroke-miterlimit:10;" d="M 216.285156 145.886719 L 199.65625 154.9375 "/>
<path style="fill:none;stroke-width:1.2;stroke-linecap:butt;stroke-linejoin:miter;stroke:rgb(0%,0%,0%);stroke-opacity:1;stroke-miterlimit:10;" d="M 199.179688 173.867188 L 215.332031 183.742188 "/>
<path style="fill:none;stroke-width:1.2;stroke-linecap:butt;stroke-linejoin:miter;stroke:rgb(0%,0%,0%);stroke-opacity:1;stroke-miterlimit:10;" d="M 215.332031 183.742188 L 231.964844 174.691406 "/>
<path style="fill:none;stroke-width:1.2;stroke-linecap:butt;stroke-linejoin:miter;stroke:rgb(0%,0%,0%);stroke-opacity:1;stroke-miterlimit:10;" d="M 214.867188 178.925781 L 228.171875 171.683594 "/>
<path style="fill:none;stroke-width:1.2;stroke-linecap:butt;stroke-linejoin:miter;stroke:rgb(0%,0%,0%);stroke-opacity:1;stroke-miterlimit:10;" d="M 215.332031 183.742188 L 215.09375 193.207031 "/>
<path style="fill:none;stroke-width:1.2;stroke-linecap:butt;stroke-linejoin:miter;stroke:rgb(100%,0%,0%);stroke-opacity:1;stroke-miterlimit:10;" d="M 215.09375 193.207031 L 214.855469 202.671875 "/>
<path style="fill:none;stroke-width:1.2;stroke-linecap:butt;stroke-linejoin:miter;stroke:rgb(0%,0%,0%);stroke-opacity:1;stroke-miterlimit:10;" d="M 231.964844 174.691406 L 232.441406 155.761719 "/>
<path style="fill:none;stroke-width:1.2;stroke-linecap:butt;stroke-linejoin:miter;stroke:rgb(0%,0%,0%);stroke-opacity:1;stroke-miterlimit:10;" d="M 231.964844 174.691406 L 240.042969 179.628906 "/>
<path style="fill:none;stroke-width:1.2;stroke-linecap:butt;stroke-linejoin:miter;stroke:rgb(100%,0%,0%);stroke-opacity:1;stroke-miterlimit:10;" d="M 240.042969 179.628906 L 248.117188 184.566406 "/>
<path style="fill:none;stroke-width:1.2;stroke-linecap:butt;stroke-linejoin:miter;stroke:rgb(0%,0%,0%);stroke-opacity:1;stroke-miterlimit:10;" d="M 232.441406 155.761719 L 216.285156 145.886719 "/>
<path style="fill:none;stroke-width:1.2;stroke-linecap:butt;stroke-linejoin:miter;stroke:rgb(0%,0%,0%);stroke-opacity:1;stroke-miterlimit:10;" d="M 228.5 158.578125 L 215.578125 150.675781 "/>
<path style="fill:none;stroke-width:1.2;stroke-linecap:butt;stroke-linejoin:miter;stroke:rgb(100%,0%,0%);stroke-opacity:1;stroke-miterlimit:10;" d="M 248.117188 184.566406 L 256.433594 180.042969 "/>
<path style="fill:none;stroke-width:1.2;stroke-linecap:butt;stroke-linejoin:miter;stroke:rgb(0%,0%,0%);stroke-opacity:1;stroke-miterlimit:10;" d="M 256.433594 180.042969 L 264.75 175.515625 "/>
<path style=" stroke:none;fill-rule:nonzero;fill:rgb(100%,100%,100%);fill-opacity:1;" d="M 244.117188 179.066406 L 252.117188 179.066406 L 252.117188 190.066406 L 244.117188 190.066406 Z M 244.117188 179.066406 "/>
<g style="fill:rgb(100%,0%,0%);fill-opacity:1;">
  <use xlink:href="#glyph0-1" x="244.117188" y="187.729492"/>
</g>
<path style="fill:none;stroke-width:1.2;stroke-linecap:butt;stroke-linejoin:miter;stroke:rgb(100%,0%,0%);stroke-opacity:1;stroke-miterlimit:10;" d="M 214.855469 202.671875 L 206.542969 207.199219 "/>
<path style="fill:none;stroke-width:1.2;stroke-linecap:butt;stroke-linejoin:miter;stroke:rgb(0%,0%,0%);stroke-opacity:1;stroke-miterlimit:10;" d="M 206.542969 207.199219 L 198.226562 211.726562 "/>
<path style=" stroke:none;fill-rule:nonzero;fill:rgb(100%,100%,100%);fill-opacity:1;" d="M 210.855469 197.171875 L 218.855469 197.171875 L 218.855469 208.171875 L 210.855469 208.171875 Z M 210.855469 197.171875 "/>
<g style="fill:rgb(100%,0%,0%);fill-opacity:1;">
  <use xlink:href="#glyph0-1" x="210.855469" y="205.834961"/>
</g>
<path style="fill:none;stroke-width:1.2;stroke-linecap:butt;stroke-linejoin:miter;stroke:rgb(0%,0%,0%);stroke-opacity:1;stroke-miterlimit:10;" d="M 152.351562 123.40625 L 144.273438 118.46875 "/>
<path style="fill:none;stroke-width:1.2;stroke-linecap:butt;stroke-linejoin:miter;stroke:rgb(100%,0%,0%);stroke-opacity:1;stroke-miterlimit:10;" d="M 144.273438 118.46875 L 136.195312 113.53125 "/>
<path style="fill:none;stroke-width:1.2;stroke-linecap:butt;stroke-linejoin:miter;stroke:rgb(0%,0%,0%);stroke-opacity:1;stroke-miterlimit:10;" d="M 150.027344 127.207031 L 141.949219 122.269531 "/>
<path style="fill:none;stroke-width:1.2;stroke-linecap:butt;stroke-linejoin:miter;stroke:rgb(100%,0%,0%);stroke-opacity:1;stroke-miterlimit:10;" d="M 141.949219 122.269531 L 133.875 117.332031 "/>
<path style="fill:none;stroke-width:1.2;stroke-linecap:butt;stroke-linejoin:miter;stroke:rgb(0%,0%,0%);stroke-opacity:1;stroke-miterlimit:10;" d="M 151.191406 125.308594 L 167.820312 116.257812 "/>
<path style=" stroke:none;fill-rule:nonzero;fill:rgb(100%,100%,100%);fill-opacity:1;" d="M 127.035156 109.933594 L 135.035156 109.933594 L 135.035156 120.933594 L 127.035156 120.933594 Z M 127.035156 109.933594 "/>
<g style="fill:rgb(100%,0%,0%);fill-opacity:1;">
  <use xlink:href="#glyph0-1" x="127.035156" y="118.59668"/>
</g>
<path style="fill:none;stroke-width:1.2;stroke-linecap:butt;stroke-linejoin:miter;stroke:rgb(0%,0%,0%);stroke-opacity:1;stroke-miterlimit:10;" d="M 167.820312 116.257812 L 183.976562 126.132812 "/>
<path style="fill:none;stroke-width:1.2;stroke-linecap:butt;stroke-linejoin:miter;stroke:rgb(0%,0%,0%);stroke-opacity:1;stroke-miterlimit:10;" d="M 171.761719 113.441406 L 184.683594 121.34375 "/>
<path style="fill:none;stroke-width:1.2;stroke-linecap:butt;stroke-linejoin:miter;stroke:rgb(0%,0%,100%);stroke-opacity:1;stroke-miterlimit:10;" d="M 168.296875 97.328125 L 168.058594 106.792969 "/>
<path style="fill:none;stroke-width:1.2;stroke-linecap:butt;stroke-linejoin:miter;stroke:rgb(0%,0%,0%);stroke-opacity:1;stroke-miterlimit:10;" d="M 168.058594 106.792969 L 167.820312 116.257812 "/>
<path style="fill:none;stroke-width:1.2;stroke-linecap:butt;stroke-linejoin:miter;stroke:rgb(0%,0%,0%);stroke-opacity:1;stroke-miterlimit:10;" d="M 183.976562 126.132812 L 200.605469 117.082031 "/>
<path style="fill:none;stroke-width:1.2;stroke-linecap:butt;stroke-linejoin:miter;stroke:rgb(0%,0%,0%);stroke-opacity:1;stroke-miterlimit:10;" d="M 200.605469 117.082031 L 201.082031 98.152344 "/>
<path style="fill:none;stroke-width:1.2;stroke-linecap:butt;stroke-linejoin:miter;stroke:rgb(0%,0%,0%);stroke-opacity:1;stroke-miterlimit:10;" d="M 196.199219 115.074219 L 196.582031 99.933594 "/>
<path style="fill:none;stroke-width:1.2;stroke-linecap:butt;stroke-linejoin:miter;stroke:rgb(0%,0%,0%);stroke-opacity:1;stroke-miterlimit:10;" d="M 201.082031 98.152344 L 184.929688 88.273438 "/>
<path style="fill:none;stroke-width:1.2;stroke-linecap:butt;stroke-linejoin:miter;stroke:rgb(0%,0%,0%);stroke-opacity:1;stroke-miterlimit:10;" d="M 184.929688 88.273438 L 176.613281 92.800781 "/>
<path style="fill:none;stroke-width:1.2;stroke-linecap:butt;stroke-linejoin:miter;stroke:rgb(0%,0%,100%);stroke-opacity:1;stroke-miterlimit:10;" d="M 176.613281 92.800781 L 168.296875 97.328125 "/>
<path style="fill:none;stroke-width:1.2;stroke-linecap:butt;stroke-linejoin:miter;stroke:rgb(0%,0%,0%);stroke-opacity:1;stroke-miterlimit:10;" d="M 185.394531 93.09375 L 178.742188 96.714844 "/>
<path style="fill:none;stroke-width:1.2;stroke-linecap:butt;stroke-linejoin:miter;stroke:rgb(0%,0%,100%);stroke-opacity:1;stroke-miterlimit:10;" d="M 178.742188 96.714844 L 172.089844 100.335938 "/>
<path style=" stroke:none;fill-rule:nonzero;fill:rgb(100%,100%,100%);fill-opacity:1;" d="M 165.296875 91.828125 L 172.296875 91.828125 L 172.296875 102.828125 L 165.296875 102.828125 Z M 165.296875 91.828125 "/>
<g style="fill:rgb(0%,0%,100%);fill-opacity:1;">
  <use xlink:href="#glyph0-2" x="165.296875" y="100.491211"/>
</g>
</g>
</svg>

<svg xmlns="http://www.w3.org/2000/svg" xmlns:xlink="http://www.w3.org/1999/xlink" width="300pt" height="300pt" viewBox="0 0 300 300"><defs><symbol overflow="visible"><path d="M.453 1.594v-7.938h4.5v7.938zm.5-.5h3.5v-6.938h-3.5zm0 0"/></symbol><symbol overflow="visible" id="a"><path d="M3.547-5.953c-.65 0-1.164.242-1.547.72-.375.48-.563 1.13-.563 1.952 0 .835.188 1.49.563 1.967.383.48.898.72 1.547.72.644 0 1.156-.24 1.53-.72.376-.476.564-1.132.564-1.968 0-.822-.187-1.474-.562-1.954-.375-.477-.887-.72-1.53-.72zm0-.734c.914 0 1.648.312 2.203.937.55.617.828 1.438.828 2.47 0 1.042-.277 1.87-.828 2.483-.555.617-1.29.922-2.203.922-.93 0-1.668-.305-2.22-.922C.774-1.41.5-2.237.5-3.28c0-1.033.273-1.853.828-2.47.55-.625 1.29-.938 2.22-.938zm0 0"/></symbol><symbol overflow="visible" id="b"><path d="M.89-6.563H2.08l2.906 5.485v-5.484h.86V0H4.656L1.75-5.484V0H.89zm0 0"/></symbol></defs><g><path fill="#fff" d="M0 0h300v300H0z"/><path d="M35.25 169.746l8.078 4.938" stroke-width="1.2" stroke="#000" stroke-miterlimit="10" fill="none"/><path d="M43.328 174.684l8.078 4.937M51.406 179.62l8.313-4.526" stroke-width="1.2" stroke="#f00" stroke-miterlimit="10" fill="none"/><path d="M59.72 175.094l8.315-4.524" stroke-width="1.2" stroke="#000" stroke-miterlimit="10" fill="none"/><path d="M47.406 174.12h8v11h-8zm0 0" fill="#fff"/><use xlink:href="#a" x="47.406" y="182.784" fill="#f00"/><path d="M68.035 170.57l.477-18.93M72.54 168.79l.378-15.145M84.19 180.445l-16.155-9.875M68.512 151.64l16.633-9.05M85.145 142.59l16.152 9.875M84.434 147.38l12.925 7.897M101.297 152.465l-.477 18.93M101.297 152.465l16.633-9.05M100.82 171.395l-16.63 9.05M97.027 168.387l-13.304 7.242M117.93 143.414l16.152 9.875M117.22 148.203l12.925 7.9M134.082 153.29l8.316-4.528" stroke-width="1.2" stroke="#000" stroke-miterlimit="10" fill="none"/><path d="M142.398 148.762l8.317-4.524M150.715 144.238l8.078 4.938" stroke-width="1.2" stroke="#00f" stroke-miterlimit="10" fill="none"/><path d="M158.793 149.176l8.074 4.937" stroke-width="1.2" stroke="#000" stroke-miterlimit="10" fill="none"/><path d="M150.715 144.238l.238-9.465" stroke-width="1.2" stroke="#00f" stroke-miterlimit="10" fill="none"/><path d="M150.953 134.773l.238-9.464" stroke-width="1.2" stroke="#000" stroke-miterlimit="10" fill="none"/><path d="M147.715 138.738h7v11h-7zm0 0" fill="#fff"/><use xlink:href="#b" x="147.715" y="147.401" fill="#00f"/><path d="M166.867 154.113l16.633-9.05M183.5 145.063l16.156 9.875M199.656 154.938l-.476 18.93M204.063 156.94l-.383 15.146M216.285 145.887l-16.63 9.05M199.18 173.867l16.152 9.875M215.332 183.742l16.633-9.05M214.867 178.926l13.305-7.242M215.332 183.742l-.238 9.465" stroke-width="1.2" stroke="#000" stroke-miterlimit="10" fill="none"/><path d="M215.094 193.207l-.24 9.465" stroke-width="1.2" stroke="#f00" stroke-miterlimit="10" fill="none"/><path d="M231.965 174.69l.476-18.928M231.965 174.69l8.078 4.94" stroke-width="1.2" stroke="#000" stroke-miterlimit="10" fill="none"/><path d="M240.043 179.63l8.074 4.936" stroke-width="1.2" stroke="#f00" stroke-miterlimit="10" fill="none"/><path d="M232.44 155.762l-16.155-9.875M228.5 158.578l-12.922-7.902" stroke-width="1.2" stroke="#000" stroke-miterlimit="10" fill="none"/><path d="M248.117 184.566l8.317-4.523" stroke-width="1.2" stroke="#f00" stroke-miterlimit="10" fill="none"/><path d="M256.434 180.043l8.316-4.527" stroke-width="1.2" stroke="#000" stroke-miterlimit="10" fill="none"/><path d="M244.117 179.066h8v11h-8zm0 0" fill="#fff"/><use xlink:href="#a" x="244.117" y="187.729" fill="#f00"/><path d="M214.855 202.672l-8.312 4.527" stroke-width="1.2" stroke="#f00" stroke-miterlimit="10" fill="none"/><path d="M206.543 207.2l-8.316 4.527" stroke-width="1.2" stroke="#000" stroke-miterlimit="10" fill="none"/><path d="M210.855 197.172h8v11h-8zm0 0" fill="#fff"/><use xlink:href="#a" x="210.855" y="205.835" fill="#f00"/><path d="M152.352 123.406l-8.08-4.937" stroke-width="1.2" stroke="#000" stroke-miterlimit="10" fill="none"/><path d="M144.273 118.47l-8.078-4.94" stroke-width="1.2" stroke="#f00" stroke-miterlimit="10" fill="none"/><path d="M150.027 127.207l-8.078-4.937" stroke-width="1.2" stroke="#000" stroke-miterlimit="10" fill="none"/><path d="M141.95 122.27l-8.075-4.938" stroke-width="1.2" stroke="#f00" stroke-miterlimit="10" fill="none"/><path d="M151.19 125.31l16.63-9.052" stroke-width="1.2" stroke="#000" stroke-miterlimit="10" fill="none"/><path d="M127.035 109.934h8v11h-8zm0 0" fill="#fff"/><use xlink:href="#a" x="127.035" y="118.597" fill="#f00"/><path d="M167.82 116.258l16.157 9.875M171.762 113.44l12.922 7.904" stroke-width="1.2" stroke="#000" stroke-miterlimit="10" fill="none"/><path d="M168.297 97.328l-.238 9.465" stroke-width="1.2" stroke="#00f" stroke-miterlimit="10" fill="none"/><path d="M168.06 106.793l-.24 9.465M183.977 126.133l16.628-9.05M200.605 117.082l.477-18.93M196.2 115.074l.382-15.14M201.082 98.152l-16.152-9.88M184.93 88.273l-8.317 4.528" stroke-width="1.2" stroke="#000" stroke-miterlimit="10" fill="none"/><path d="M176.613 92.8l-8.316 4.528" stroke-width="1.2" stroke="#00f" stroke-miterlimit="10" fill="none"/><path d="M185.395 93.094l-6.653 3.62" stroke-width="1.2" stroke="#000" stroke-miterlimit="10" fill="none"/><path d="M178.742 96.715l-6.652 3.62" stroke-width="1.2" stroke="#00f" stroke-miterlimit="10" fill="none"/><path d="M165.297 91.828h7v11h-7zm0 0" fill="#fff"/><use xlink:href="#b" x="165.297" y="100.491" fill="#00f"/></g></svg>
